icons/svg/arrow-trending.svg

<svg width="24" height="24" viewBox="0 0 24 24" fill="none" xmlns="http://www.w3.org/2000/svg">
<path d="M3.25 16.75L8.04289 11.9571C8.43342 11.5666 9.06658 11.5666 9.45711 11.9571L12.0429 14.5429C12.4334 14.9334 13.0666 14.9334 13.4571 14.5429L19.75 8.25L20.3107 7.68934M14.75 7.25H19.25C19.6642 7.25 20.0392 7.41789 20.3107 7.68934M20.75 13.25V8.75C20.75 8.33579 20.5821 7.96079 20.3107 7.68934" stroke="currentColor" stroke-width="1.5" stroke-linecap="round" stroke-linejoin="round"/>
</svg>

<svg xmlns="http://www.w3.org/2000/svg" width="24" height="24" fill="none" viewBox="0 0 24 24"><path stroke="currentColor" stroke-linecap="round" stroke-linejoin="round" stroke-width="1.5" d="m3.25 16.75 4.793-4.793a1 1 0 0 1 1.414 0l2.586 2.586a1 1 0 0 0 1.414 0L19.75 8.25l.56-.56m-5.56-.44h4.5c.414 0 .79.168 1.06.44m.44 5.56v-4.5c0-.414-.168-.79-.44-1.06"/></svg>
